X: 3
T: Le 24 Juin
C: Philippe Bruneau
O: Qu\'ebec
R: reel
Z: 2010 John Chambers <jc:trillian.mit.edu>
M: C|
L: 1/8
K: Gm
D2 \
|: "Gm"G2GA B2Bc | "Gm"d2de dcBA |\
"Gm"G^FGA BABc | "Gm"d^cde "(G7)"d3d ||\
"Cm"dcc=B c3c |
"Gm"cBBA B4 |\
[1 "D7"(3ABA ^GA BAGA | "D7"dDcD BDAD :|\
[2 "D7"(3ABA ^GA dcBA | "G"G=B"D7"A^F "G"G2 |][K:=B=e]
[K:G]\
"D7"A2 |:\
"G"B2BB "D7"ABcA | "G"GABG (3EGE DB, |\
"G"G,B,DG "(E7)"B3B | "Am"ABcA E2AB ||\
"C"c2ec "G"BcdB |
[1 "Am"ABcA "D7"BAFE | "D7"DEFG ABcd | "C"efge "D7"dcBA :|\
[2 "Am"ABcA "D7"F3f | "D7"fedc BAFA | "G"GB"D7"AF "G"G2 |]

